app/dist/common/images/deutsche-rohstoff-ag.svg

<svg height="18" viewBox="0 0 18 18" width="18" xmlns="http://www.w3.org/2000/svg"><path d="m0 0h18v18h-18z" fill="#0d5388"/><path d="m6.45 4.71c.41 0 .77.36.77.71v7.16c0 .35-.36.7-.77.7h-.73v-8.56h.73zm0-.71h-1.45v10h1.5c.83 0 1.5-.66 1.5-1.42v-7.16c0-.81-.72-1.42-1.55-1.42zm5.74 1.42v2.84c0 .36-.36.74-.77.74h-.7v-4.29h.7c.41 0 .77.3.77.71zm.81 4.98c0-.46-.25-.82-.56-1.07.3-.25.56-.66.56-1.07v-2.84c0-.76-.71-1.42-1.53-1.42h-1.47v10h.76v-4.31h.71c.36 0 .77.35.77.7v3.61h.76z" fill="#fff"/></svg>

<!-- by TradingView --><svg width="18" height="18" viewBox="0 0 18 18" xmlns="http://www.w3.org/2000/svg"><path fill="#0D5388" d="M0 0h18v18H0z"/><path d="M6.45 4.71c.41 0 .77.36.77.71v7.16c0 .35-.36.7-.77.7h-.73V4.72h.73Zm0-.71H5v10h1.5c.83 0 1.5-.66 1.5-1.42V5.42C8 4.61 7.28 4 6.45 4ZM12.19 5.42v2.84c0 .36-.36.74-.77.74h-.7V4.71h.7c.41 0 .77.3.77.71ZM13 10.4c0-.46-.25-.82-.56-1.07.3-.25.56-.66.56-1.07V5.42C13 4.66 12.29 4 11.47 4H10v10h.76V9.69h.71c.36 0 .77.35.77.7V14H13v-3.6Z" fill="#fff"/></svg>
